dist/img/card/discount15@320.svg

<svg width="32" height="32" viewBox="0 0 32 32" fill="none" xmlns="http://www.w3.org/2000/svg">
<circle cx="16" cy="16" r="16" fill="#FFBD13"/>
<path d="M2.684 15.758H5.792V16.994H2.684V15.758ZM12.6866 18.89V20H7.88656V18.89H9.64456V13.832C9.64456 13.632 9.65056 13.426 9.66256 13.214L8.41456 14.258C8.34256 14.314 8.27056 14.35 8.19856 14.366C8.13056 14.378 8.06456 14.378 8.00056 14.366C7.94056 14.354 7.88656 14.334 7.83856 14.306C7.79056 14.274 7.75456 14.24 7.73056 14.204L7.26256 13.562L9.90856 11.312H11.1266V18.89H12.6866ZM15.8735 14.474C16.0655 14.434 16.2495 14.406 16.4255 14.39C16.6015 14.37 16.7715 14.36 16.9355 14.36C17.3915 14.36 17.7935 14.428 18.1415 14.564C18.4895 14.7 18.7815 14.888 19.0175 15.128C19.2535 15.368 19.4315 15.65 19.5515 15.974C19.6715 16.294 19.7315 16.64 19.7315 17.012C19.7315 17.472 19.6495 17.892 19.4855 18.272C19.3255 18.652 19.1015 18.978 18.8135 19.25C18.5255 19.518 18.1835 19.726 17.7875 19.874C17.3955 20.022 16.9675 20.096 16.5035 20.096C16.2315 20.096 15.9735 20.068 15.7295 20.012C15.4855 19.956 15.2555 19.882 15.0395 19.79C14.8275 19.694 14.6295 19.586 14.4455 19.466C14.2655 19.342 14.1035 19.212 13.9595 19.076L14.4155 18.446C14.5115 18.31 14.6375 18.242 14.7935 18.242C14.8935 18.242 14.9955 18.274 15.0995 18.338C15.2035 18.402 15.3215 18.472 15.4535 18.548C15.5895 18.624 15.7475 18.694 15.9275 18.758C16.1115 18.822 16.3315 18.854 16.5875 18.854C16.8595 18.854 17.0995 18.81 17.3075 18.722C17.5155 18.634 17.6875 18.512 17.8235 18.356C17.9635 18.196 18.0675 18.008 18.1355 17.792C18.2075 17.572 18.2435 17.334 18.2435 17.078C18.2435 16.606 18.1055 16.238 17.8295 15.974C17.5575 15.706 17.1535 15.572 16.6175 15.572C16.2055 15.572 15.7835 15.648 15.3515 15.8L14.4275 15.536L15.1475 11.324H19.4315V11.954C19.4315 12.166 19.3655 12.338 19.2335 12.47C19.1015 12.602 18.8775 12.668 18.5615 12.668H16.1795L15.8735 14.474ZM24.8684 13.424C24.8684 13.752 24.8124 14.048 24.7004 14.312C24.5924 14.576 24.4464 14.802 24.2624 14.99C24.0784 15.174 23.8644 15.316 23.6204 15.416C23.3764 15.516 23.1224 15.566 22.8584 15.566C22.5704 15.566 22.3044 15.516 22.0604 15.416C21.8164 15.316 21.6044 15.174 21.4244 14.99C21.2484 14.802 21.1104 14.576 21.0104 14.312C20.9104 14.048 20.8604 13.752 20.8604 13.424C20.8604 13.088 20.9104 12.784 21.0104 12.512C21.1104 12.24 21.2484 12.01 21.4244 11.822C21.6044 11.634 21.8164 11.49 22.0604 11.39C22.3044 11.286 22.5704 11.234 22.8584 11.234C23.1464 11.234 23.4124 11.286 23.6564 11.39C23.9044 11.49 24.1184 11.634 24.2984 11.822C24.4784 12.01 24.6184 12.24 24.7184 12.512C24.8184 12.784 24.8684 13.088 24.8684 13.424ZM23.7284 13.424C23.7284 13.192 23.7044 12.998 23.6564 12.842C23.6124 12.686 23.5504 12.56 23.4704 12.464C23.3944 12.368 23.3024 12.3 23.1944 12.26C23.0904 12.216 22.9784 12.194 22.8584 12.194C22.7384 12.194 22.6264 12.216 22.5224 12.26C22.4184 12.3 22.3284 12.368 22.2524 12.464C22.1804 12.56 22.1224 12.686 22.0784 12.842C22.0344 12.998 22.0124 13.192 22.0124 13.424C22.0124 13.648 22.0344 13.836 22.0784 13.988C22.1224 14.136 22.1804 14.256 22.2524 14.348C22.3284 14.44 22.4184 14.506 22.5224 14.546C22.6264 14.586 22.7384 14.606 22.8584 14.606C22.9784 14.606 23.0904 14.586 23.1944 14.546C23.3024 14.506 23.3944 14.44 23.4704 14.348C23.5504 14.256 23.6124 14.136 23.6564 13.988C23.7044 13.836 23.7284 13.648 23.7284 13.424ZM27.7544 11.558C27.8064 11.498 27.8664 11.444 27.9344 11.396C28.0064 11.348 28.1064 11.324 28.2344 11.324H29.3144L22.8704 19.778C22.8184 19.842 22.7564 19.896 22.6844 19.94C22.6124 19.98 22.5244 20 22.4204 20H21.3164L27.7544 11.558ZM29.7704 17.96C29.7704 18.288 29.7144 18.584 29.6024 18.848C29.4944 19.112 29.3484 19.338 29.1644 19.526C28.9804 19.71 28.7664 19.854 28.5224 19.958C28.2784 20.058 28.0244 20.108 27.7604 20.108C27.4724 20.108 27.2064 20.058 26.9624 19.958C26.7184 19.854 26.5064 19.71 26.3264 19.526C26.1504 19.338 26.0124 19.112 25.9124 18.848C25.8124 18.584 25.7624 18.288 25.7624 17.96C25.7624 17.624 25.8124 17.32 25.9124 17.048C26.0124 16.776 26.1504 16.546 26.3264 16.358C26.5064 16.17 26.7184 16.026 26.9624 15.926C27.2064 15.822 27.4724 15.77 27.7604 15.77C28.0484 15.77 28.3144 15.822 28.5584 15.926C28.8064 16.026 29.0184 16.17 29.1944 16.358C29.3744 16.546 29.5144 16.776 29.6144 17.048C29.7184 17.32 29.7704 17.624 29.7704 17.96ZM28.6244 17.96C28.6244 17.728 28.6024 17.534 28.5584 17.378C28.5144 17.222 28.4524 17.096 28.3724 17C28.2964 16.904 28.2044 16.836 28.0964 16.796C27.9924 16.752 27.8804 16.73 27.7604 16.73C27.6404 16.73 27.5284 16.752 27.4244 16.796C27.3204 16.836 27.2304 16.904 27.1544 17C27.0784 17.096 27.0184 17.222 26.9744 17.378C26.9344 17.534 26.9144 17.728 26.9144 17.96C26.9144 18.184 26.9344 18.372 26.9744 18.524C27.0184 18.676 27.0784 18.798 27.1544 18.89C27.2304 18.982 27.3204 19.048 27.4244 19.088C27.5284 19.128 27.6404 19.148 27.7604 19.148C27.8804 19.148 27.9924 19.128 28.0964 19.088C28.2044 19.048 28.2964 18.982 28.3724 18.89C28.4524 18.798 28.5144 18.676 28.5584 18.524C28.6024 18.372 28.6244 18.184 28.6244 17.96Z" fill="white"/>
</svg>

<svg width="32" height="32" fill="none" xmlns="http://www.w3.org/2000/svg"><circle cx="16" cy="16" r="16" fill="#FFBD13"/><path d="M2.684 15.758h3.108v1.236H2.684v-1.236Zm10.003 3.132V20h-4.8v-1.11h1.758v-5.058c0-.2.006-.406.018-.618l-1.248 1.044a.548.548 0 0 1-.216.108.522.522 0 0 1-.36-.06.381.381 0 0 1-.108-.102l-.468-.642 2.646-2.25h1.218v7.578h1.56Zm3.187-4.416c.191-.04.376-.068.551-.084.177-.02.346-.03.51-.03.457 0 .859.068 1.207.204.348.136.64.324.875.564.236.24.415.522.535.846.12.32.18.666.18 1.038 0 .46-.082.88-.247 1.26-.16.38-.383.706-.671.978-.288.268-.63.476-1.026.624-.393.148-.82.222-1.285.222-.271 0-.53-.028-.774-.084a4.094 4.094 0 0 1-.69-.222 4.432 4.432 0 0 1-.594-.324 4.062 4.062 0 0 1-.486-.39l.457-.63a.443.443 0 0 1 .377-.204c.1 0 .203.032.307.096.104.064.222.134.354.21.135.076.293.146.473.21.184.064.404.096.66.096.273 0 .512-.044.72-.132.209-.088.38-.21.517-.366.14-.16.243-.348.311-.564.072-.22.108-.458.108-.714 0-.472-.137-.84-.413-1.104-.272-.268-.676-.402-1.212-.402-.412 0-.834.076-1.266.228l-.925-.264.72-4.212h4.284v.63a.698.698 0 0 1-.198.516c-.131.132-.355.198-.672.198H16.18l-.306 1.806Zm8.994-1.05c0 .328-.056.624-.168.888-.108.264-.254.49-.438.678a1.99 1.99 0 0 1-1.404.576c-.288 0-.554-.05-.798-.15a1.873 1.873 0 0 1-.636-.426 2.032 2.032 0 0 1-.414-.678c-.1-.264-.15-.56-.15-.888 0-.336.05-.64.15-.912.1-.272.238-.502.414-.69.18-.188.392-.332.636-.432.244-.104.51-.156.798-.156.288 0 .554.052.798.156.248.1.462.244.642.432s.32.418.42.69c.1.272.15.576.15.912Zm-1.14 0c0-.232-.024-.426-.072-.582a1.013 1.013 0 0 0-.186-.378.625.625 0 0 0-.276-.204.853.853 0 0 0-.336-.066.853.853 0 0 0-.336.066.631.631 0 0 0-.27.204c-.072.096-.13.222-.174.378a2.18 2.18 0 0 0-.066.582c0 .224.022.412.066.564.044.148.102.268.174.36a.65.65 0 0 0 .27.198c.104.04.216.06.336.06.12 0 .232-.02.336-.06.108-.04.2-.106.276-.198a.956.956 0 0 0 .186-.36c.048-.152.072-.34.072-.564Zm4.026-1.866a1 1 0 0 1 .18-.162.537.537 0 0 1 .3-.072h1.08l-6.444 8.454a.724.724 0 0 1-.186.162.537.537 0 0 1-.264.06h-1.104l6.438-8.442Zm2.016 6.402c0 .328-.056.624-.168.888-.108.264-.254.49-.438.678a2.017 2.017 0 0 1-.642.432c-.244.1-.498.15-.762.15-.288 0-.554-.05-.798-.15a1.948 1.948 0 0 1-.636-.432 2.032 2.032 0 0 1-.414-.678c-.1-.264-.15-.56-.15-.888 0-.336.05-.64.15-.912.1-.272.238-.502.414-.69.18-.188.392-.332.636-.432.244-.104.51-.156.798-.156.288 0 .554.052.798.156.248.1.46.244.636.432.18.188.32.418.42.69.104.272.156.576.156.912Zm-1.146 0a2.18 2.18 0 0 0-.066-.582 1.013 1.013 0 0 0-.186-.378.625.625 0 0 0-.276-.204.853.853 0 0 0-.336-.066.853.853 0 0 0-.336.066.631.631 0 0 0-.27.204 1.073 1.073 0 0 0-.18.378c-.04.156-.06.35-.06.582 0 .224.02.412.06.564.044.152.104.274.18.366a.65.65 0 0 0 .27.198c.104.04.216.06.336.06.12 0 .232-.02.336-.06.108-.04.2-.106.276-.198a.955.955 0 0 0 .186-.366c.044-.152.066-.34.066-.564Z" fill="#fff"/></svg>
